src/assets/icons/real-estate/elevator.svg

<svg width="48" height="48" viewBox="0 0 48 48" fill="none" xmlns="http://www.w3.org/2000/svg">
<rect width="48" height="48" fill="white"/>
<path fill-rule="evenodd" clip-rule="evenodd" d="M33.3793 30.7503H37.7931V22.8755H33.3793V30.7503ZM23.4483 39.7501V13.8757H31.1724V21.7505V31.8752V39.7501H23.4483ZM13.5172 39.7501H21.2414V13.8757H13.5172V39.7501ZM38.8966 20.6255C39.5068 20.6255 40 21.1284 40 21.7505V31.8752C40 32.4974 39.5068 33.0002 38.8966 33.0002H33.3793V39.7501H36.6897C37.2999 39.7501 37.7931 40.2529 37.7931 40.875C37.7931 41.4971 37.2999 42 36.6897 42H32.2759H12.4138H9.10345C8.49324 42 8 41.4971 8 40.875C8 40.2529 8.49324 39.7501 9.10345 39.7501H11.3103V12.7507C11.3103 12.1286 11.8036 11.6257 12.4138 11.6257H32.2759C32.8861 11.6257 33.3793 12.1286 33.3793 12.7507V20.6255H38.8966ZM26.2673 9.18677C25.7575 9.53101 25.0744 9.39151 24.7368 8.87515C24.3991 8.35766 24.5359 7.66018 25.0435 7.31481L26.6987 6.18984C27.0695 5.93672 27.5517 5.93672 27.9224 6.18984L29.5776 7.31481C30.0852 7.66018 30.222 8.35766 29.8833 8.87515C29.6714 9.20027 29.3216 9.37576 28.9641 9.37576C28.7544 9.37576 28.5426 9.31389 28.3539 9.18677L27.31 8.47804L26.2673 9.18677ZM16.7672 9.18677L15.1121 8.0618C14.6045 7.71643 14.4676 7.01895 14.8064 6.50146C15.143 5.98397 15.826 5.84447 16.3358 6.18984L17.3796 6.89857L18.4224 6.18984C18.9311 5.84447 19.6152 5.98397 19.9529 6.50146C20.2905 7.01895 20.1537 7.71643 19.6461 8.0618L17.991 9.18677C17.8056 9.31277 17.5926 9.37576 17.3796 9.37576C17.1656 9.37576 16.9526 9.31277 16.7672 9.18677ZM35.5862 26.2504C35.7297 26.2504 35.8731 26.2267 36.0055 26.1604C36.1379 26.1041 36.2582 26.0254 36.3697 25.9129C36.5782 25.7104 36.6897 25.4291 36.6897 25.1254C36.6897 24.8329 36.5683 24.5393 36.3697 24.3267C36.3145 24.2817 36.2582 24.2254 36.2041 24.1917C36.1379 24.1467 36.0706 24.1129 36.0055 24.0904C35.9382 24.0567 35.8731 24.0342 35.8069 24.0229C35.6623 23.9892 35.509 23.9892 35.3766 24.0229C35.2993 24.0342 35.2331 24.0567 35.1669 24.0904C35.1007 24.1129 35.0345 24.1467 34.9672 24.1917C34.9131 24.2254 34.8579 24.2817 34.8028 24.3267C34.603 24.5393 34.4828 24.8329 34.4828 25.1254C34.4828 25.4291 34.5931 25.7104 34.8028 25.9129C35.0113 26.1367 35.2872 26.2504 35.5862 26.2504ZM35.167 29.5352C35.2994 29.5914 35.4429 29.6252 35.5863 29.6252C35.8831 29.6252 36.159 29.5116 36.3698 29.2989C36.5783 29.0852 36.6898 28.804 36.6898 28.5002C36.6898 28.4215 36.6787 28.354 36.6666 28.2752C36.6567 28.2077 36.6346 28.1402 36.6015 28.0727C36.5783 28.0052 36.5463 27.9377 36.5022 27.8702L36.3698 27.7015C36.3146 27.6565 36.2583 27.6115 36.2031 27.5665C36.138 27.5215 36.0707 27.4877 36.0056 27.4652C35.9383 27.4315 35.8732 27.409 35.807 27.3977C35.6625 27.364 35.5091 27.364 35.3756 27.3977C35.2994 27.409 35.2332 27.4315 35.167 27.4652C35.0997 27.4877 35.0346 27.5215 34.9673 27.5665L34.8029 27.7015C34.7587 27.7577 34.7036 27.814 34.6705 27.8702C34.6263 27.9377 34.5921 28.0052 34.5711 28.0727C34.538 28.1402 34.516 28.2077 34.5038 28.2752C34.4939 28.354 34.4829 28.4215 34.4829 28.5002C34.4829 28.804 34.5921 29.0852 34.8029 29.2989C34.9132 29.4002 35.0346 29.4789 35.167 29.5352Z" fill="#253238"/>
</svg>

<svg width="48" height="48" viewBox="0 0 48 48" fill="none" xmlns="http://www.w3.org/2000/svg"><path fill-rule="evenodd" clip-rule="evenodd" d="M33.38 30.75h4.413v-7.875H33.38v7.875zm-9.932 9V13.876h7.724V39.75h-7.724zm-9.93 0h7.723V13.876h-7.724V39.75zm25.379-19.125c.61 0 1.103.503 1.103 1.125v10.125c0 .622-.493 1.125-1.103 1.125h-5.518v6.75h3.31c.61 0 1.104.503 1.104 1.125S37.3 42 36.69 42H9.104C8.493 42 8 41.497 8 40.875s.493-1.125 1.103-1.125h2.207v-27c0-.621.494-1.124 1.104-1.124h19.862c.61 0 1.103.503 1.103 1.125v7.874h5.518zM26.267 9.187a1.091 1.091 0 01-1.53-.312 1.139 1.139 0 01.307-1.56l1.655-1.125a1.08 1.08 0 011.223 0l1.656 1.125c.507.345.644 1.043.305 1.56a1.09 1.09 0 01-1.53.312l-1.043-.709-1.043.709zm-9.5 0l-1.655-1.125a1.138 1.138 0 01-.306-1.56 1.088 1.088 0 011.53-.312l1.044.709 1.042-.71a1.09 1.09 0 011.53.312c.338.518.202 1.215-.306 1.56l-1.655 1.126a1.086 1.086 0 01-1.224 0zm18.82 17.063a.925.925 0 00.418-.09 1.12 1.12 0 00.365-.247c.208-.203.32-.484.32-.788 0-.292-.122-.586-.32-.798-.055-.045-.112-.102-.166-.135a.85.85 0 00-.199-.102.707.707 0 00-.198-.067.928.928 0 00-.43 0 .659.659 0 00-.21.067.857.857 0 00-.2.102c-.054.033-.11.09-.164.135-.2.212-.32.506-.32.798 0 .304.11.585.32.788.208.224.484.337.783.337zm-.42 3.285c.132.056.276.09.42.09.296 0 .572-.113.783-.326a1.13 1.13 0 00.32-.799c0-.078-.011-.146-.023-.225a.687.687 0 00-.066-.202.906.906 0 00-.099-.203l-.132-.169-.167-.134a.823.823 0 00-.197-.102.707.707 0 00-.199-.067.933.933 0 00-.431 0 .661.661 0 00-.209.067.836.836 0 00-.2.102l-.164.134c-.044.057-.1.113-.133.17a.817.817 0 00-.099.202.769.769 0 00-.067.202c-.01.079-.021.147-.021.225 0 .304.11.585.32.799.11.101.232.18.364.236z" fill="#253238"/></svg>
